www/assets/icons/visibility_outline.svg

<svg xmlns="http://www.w3.org/2000/svg" width="24" height="24" viewBox="0 0 24 24" fill='currentColor'><path d="M12 6.5a9.77 9.77 0 0 1 8.82 5.5A9.77 9.77 0 0 1 12 17.5 9.77 9.77 0 0 1 3.18 12 9.77 9.77 0 0 1 12 6.5m0-2C7 4.5 2.73 7.61 1 12c1.73 4.39 6 7.5 11 7.5s9.27-3.11 11-7.5c-1.73-4.39-6-7.5-11-7.5m0 5a2.5 2.5 0 0 1 0 5 2.5 2.5 0 0 1 0-5m0-2c-2.48 0-4.5 2.02-4.5 4.5s2.02 4.5 4.5 4.5 4.5-2.02 4.5-4.5-2.02-4.5-4.5-4.5"/></svg>

<svg width="24" height="24" viewBox="0 0 24 24" xmlns="http://www.w3.org/2000/svg" fill='currentColor'><path d="M12 6.5C15.79 6.5 19.17 8.63 20.82 12C19.17 15.37 15.79 17.5 12 17.5C8.21 17.5 4.83 15.37 3.18 12C4.83 8.63 8.21 6.5 12 6.5ZM12 4.5C7 4.5 2.73 7.61 1 12C2.73 16.39 7 19.5 12 19.5C17 19.5 21.27 16.39 23 12C21.27 7.61 17 4.5 12 4.5ZM12 9.5C13.38 9.5 14.5 10.62 14.5 12C14.5 13.38 13.38 14.5 12 14.5C10.62 14.5 9.5 13.38 9.5 12C9.5 10.62 10.62 9.5 12 9.5ZM12 7.5C9.52 7.5 7.5 9.52 7.5 12C7.5 14.48 9.52 16.5 12 16.5C14.48 16.5 16.5 14.48 16.5 12C16.5 9.52 14.48 7.5 12 7.5Z"/></svg>
